icon/lg/game-analytics.svg

<?xml version="1.0" encoding="UTF-8"?>
<svg viewBox="0 0 512 67" version="1.1" xmlns="http://www.w3.org/2000/svg" xmlns:xlink="http://www.w3.org/1999/xlink" preserveAspectRatio="xMidYMid" height="1em" width="1em">
  <g>
    <g transform="translate(396.541824, 0.000000)">
      <rect fill="#FFFFFF" x="-1.79335334e-14" y="0" width="8.969625" height="8.969625"/>
      <rect fill="#1955A6" x="20.9912523" y="0" width="16.7665977" height="8.969625"/>
      <rect fill="#4CC0AD" x="8.96185909" y="0" width="12.0293932" height="8.969625"/>
    </g>
    <path d="M361.494276,15.7647955 L371.652085,42.114525 L381.81766,15.7647955 L391.641535,15.7647955 L374.183771,58.3996364 C369.182526,70.4989227 354.567085,64.6123636 354.567085,64.6123636 L354.567085,64.6123636 L356.896858,57.8793205 C363.723092,59.6188841 365.45489,58.4462318 366.907115,53.1265841 L366.907115,53.1265841 L351.670401,15.7647955 L361.494276,15.7647955 Z M17.8753393,3.64202055 C28.5825215,-0.109768928 40.4914992,3.31280572 47.5729327,12.1769455 L47.5729327,12.1769455 L38.6732009,16.3705364 C35.4624182,13.2737173 31.1745756,11.5446587 26.7137009,11.5479068 C18.9377836,11.5393615 12.1122113,16.7214344 10.030989,24.2136622 C7.94976673,31.7058899 11.1246665,39.6659357 17.7909153,43.6691955 C24.4571641,47.6724553 32.9755332,46.7345287 38.6110736,41.3767636 L38.6110736,41.3767636 L38.6110736,34.6903159 L19.8486372,34.6903159 L19.8486372,26.4895159 L47.5729327,26.4895159 L47.5729327,45.5159932 L47.3051278,45.8458443 C40.1939625,54.4645763 28.4486817,57.7558102 17.8753393,54.0509181 C7.16815719,50.2991286 0,40.1919386 0,28.8464693 C0,17.501 7.16815719,7.39381003 17.8753393,3.64202055 Z M496.846305,14.9183114 C506.118801,14.9183114 509.396015,20.0981727 510.824942,22.7774114 L510.824942,22.7774114 L503.835624,26.0701568 C502.342994,23.5046302 499.564518,21.9633512 496.597796,22.0551818 C492.365376,22.0551818 491.247085,24.4936773 491.16166,25.4877136 C491.045171,26.9011091 491.02964,28.959075 497.754917,31.0636364 C498.076565,31.1700409 498.397963,31.2766323 498.71849,31.3838553 L499.358197,31.5992753 C505.952682,33.8367077 511.997594,36.4705636 511.997594,43.4269636 C511.997594,49.3368205 507.920492,55.5495477 497.537471,55.5495477 C485.849778,55.5495477 483.007455,49.0727795 482.48714,43.8152591 L482.48714,43.8152591 L490.330708,43.8152591 C491.231553,48.0865091 495.90663,48.4204432 497.793746,48.4204432 C499.680862,48.4204432 503.835624,47.7758727 503.835624,44.2656818 C503.835624,40.7554909 496.644392,39.0702886 493.677815,37.9364659 C490.711237,36.8026432 483.007455,34.3253182 483.007455,26.1633477 C483.007455,22.1794364 485.632333,14.9183114 496.846305,14.9183114 Z M72.835435,14.9183114 C85.7190781,14.9183114 89.7884145,23.1191114 89.7652161,30.8461909 L89.7652161,30.8461909 L89.7652161,54.6564682 L80.7954918,54.6564682 L80.7954918,54.6564682 L80.7954918,50.5716 C76.9591327,54.3768955 73.43341,55.5495477 67.4381281,55.5495477 C59.5479645,55.5495477 53.5915122,50.2221341 53.5915122,43.3570705 C53.5915122,28.8348205 74.2100009,30.4423636 80.6712372,32.1275659 L80.6712372,32.1275659 L80.6712372,32.0576727 C80.6712372,27.6621682 79.3044372,22.9404955 72.7888395,22.9404955 C64.6889963,22.9404955 64.463785,27.8019545 64.463785,27.8019545 L64.463785,27.8019545 L55.921285,27.8019545 C55.921285,22.5211364 59.9517918,14.9183114 72.835435,14.9183114 Z M312.685537,14.9183114 C325.56918,14.9183114 329.630751,23.1191114 329.599864,30.8461909 L329.599864,54.6564682 L320.637828,54.6564682 L320.637828,54.6564682 L320.637828,50.5716 C316.801469,54.3768955 313.275746,55.5495477 307.28823,55.5495477 C299.398067,55.5495477 293.441615,50.2221341 293.441615,43.3570705 C293.441615,28.8348205 314.052337,30.4423636 320.536871,32.1275659 L320.536871,32.1275659 L320.536871,32.0576727 C320.536871,27.6621682 319.177837,22.9404955 312.66224,22.9404955 C304.562396,22.9404955 304.329419,27.8019545 304.329419,27.8019545 L304.329419,27.8019545 L295.732558,27.8019545 C295.732558,22.5211364 299.77083,14.9183114 312.685537,14.9183114 Z M455.775536,15.7383314 C464.391518,13.2196292 473.638985,16.6564325 478.51876,24.1908068 L478.51876,24.1908068 L471.218805,28.8503523 C469.06794,25.5557894 465.399333,23.5696009 461.464824,23.5695341 L461.464824,23.5695341 L461.464824,23.5462364 C455.933748,23.5626886 451.176852,27.466363 450.081371,32.8878929 C448.98589,38.3094227 451.853908,43.7537967 456.944659,45.916508 C462.03541,48.0792194 467.945096,46.3638907 471.086785,41.8116545 L471.086785,41.8116545 L478.38674,46.4712 C473.418021,53.947218 464.130476,57.2741937 455.544947,54.6535656 C446.959418,52.0329374 441.112948,44.0864883 441.165777,35.110065 C441.219326,26.1336416 447.159554,18.2570335 455.775536,15.7383314 Z M177.61308,14.9726727 C190.605446,14.9726727 198.596567,26.8001523 196.74828,38.4490159 L196.74828,38.4490159 L166.686446,38.4490159 C168.006651,43.5900477 172.39439,47.3720455 177.61308,47.3720455 C181.108976,47.3507334 184.388927,45.6776417 186.458451,42.8600523 L186.458451,42.8600523 L194.379678,46.7430068 C193.704044,47.6438523 188.275674,55.4951864 177.61308,55.4951864 C166.399108,55.4951864 158.198308,46.4246045 158.198308,35.2339295 C158.198308,24.0432545 166.422405,14.9726727 177.61308,14.9726727 Z M417.913605,15.7647955 L416.616699,23.7170864 L405.503683,23.7170864 L405.503683,43.4580273 C405.503683,47.3953432 408.097496,47.923425 410.82333,47.4807682 C411.26813,47.415963 412.03472,47.2640061 412.814988,47.1003364 L413.240093,47.0103539 C414.367448,46.7697212 415.405217,46.5333273 415.405217,46.5333273 L415.405217,46.5333273 L414.139374,54.2992364 C412.087052,54.9803977 409.94793,55.3648121 407.78686,55.440825 C400.99169,55.5495477 396.541824,51.3481909 396.541824,44.3122773 L396.541824,44.3122773 L396.541824,15.7647955 L417.913605,15.7647955 Z M270.904946,14.9183114 C281.90924,14.0795932 287.345376,22.2803932 287.345376,31.3587409 L287.345376,31.3587409 L287.345376,54.6564682 L278.399049,54.6564682 L278.399049,32.9895818 C278.399049,26.4584523 274.896624,23.9811273 271.285476,23.491875 C268.03156,23.0492182 260.320012,24.08985 260.320012,33.9836182 L260.320012,33.9836182 L260.320012,54.6564682 L251.365919,54.6564682 L251.365919,15.7647955 L260.320012,15.7647955 L260.320012,21.9076295 C262.369279,17.8745918 266.391132,15.2189292 270.904946,14.9183114 Z M115.29166,14.9183114 C119.132902,14.4794206 122.92884,16.0529882 125.33298,19.0808386 C128.219678,16.4035485 132.01186,14.9166361 135.948978,14.9183114 C144.599361,14.9225916 151.612015,21.9317702 151.620583,30.58215 L151.620583,30.58215 L151.620583,54.6564682 L142.658724,54.6564682 L142.658724,30.58215 C142.742164,28.129147 141.481117,25.8259105 139.369571,24.574687 C137.258025,23.3234635 134.632165,23.3234635 132.520619,24.574687 C130.409074,25.8259105 129.148026,28.129147 129.231467,30.58215 L129.231467,30.58215 L129.231467,54.6564682 L120.24631,54.6564682 L120.24631,33.0206455 C120.24631,28.3843977 119.135785,25.1304818 115.703253,23.9733614 C112.923058,23.0414523 106.819053,24.2296364 106.819053,33.5487273 L106.819053,33.5487273 L106.819053,54.6564682 L97.8571941,54.6564682 L97.8571941,15.7647955 L106.850117,15.7647955 L106.850117,20.9058273 C108.612978,17.6907409 111.408705,15.2755432 115.29166,14.9183114 Z M227.392558,2.99764091 L247.001478,54.6564682 L237.340687,54.6564682 L232.984012,43.1862205 L211.658826,43.1862205 L207.294385,54.6564682 L197.64136,54.6564682 L217.273578,2.99764091 L227.392558,2.99764091 Z M346.304158,2.99764091 L346.304158,54.6564682 L337.350065,54.6564682 L337.350065,2.99764091 L346.304158,2.99764091 Z M434.291908,15.7647955 L434.291908,54.6487023 L425.337815,54.6487023 L425.337815,15.7647955 L434.291908,15.7647955 Z M80.7178327,39.3420955 C72.8121372,35.7775432 62.8251781,38.0917841 62.6387963,43.2638795 C62.5145418,46.5954545 65.8072872,49.7018182 71.6472509,48.5835273 C75.739885,47.8147023 80.0344327,43.8618545 80.7178327,40.1186864 L80.7178327,40.1186864 Z M320.567935,39.3420955 C312.654474,35.7775432 302.667515,38.0917841 302.481133,43.2638795 C302.364644,46.6187523 305.65739,49.6862864 311.489587,48.5835273 C315.582221,47.8147023 319.884535,43.8618545 320.567935,40.1186864 L320.567935,40.1186864 Z M222.336951,15.0969273 L214.679765,35.2339295 L229.994137,35.2339295 L222.336951,15.0969273 Z M177.628612,23.013623 C172.892251,23.013623 168.679443,26.0237008 167.144635,30.5044909 L167.144635,30.5044909 L188.11259,30.5044909 C186.577781,26.0237008 182.364973,23.013623 177.628612,23.013623 Z" fill="#FFFFFF"/>
  </g>
</svg>

<svg width="512" height="67" xmlns="http://www.w3.org/2000/svg" preserveAspectRatio="xMidYMid"><path fill="#FFF" d="M396.542 0h8.97v8.97h-8.97z"/><path fill="#1955A6" d="M417.533 0H434.3v8.97h-16.767z"/><path fill="#4CC0AD" d="M405.504 0h12.029v8.97h-12.03z"/><path d="m361.494 15.765 10.158 26.35 10.166-26.35h9.824L374.184 58.4c-5.001 12.099-19.617 6.212-19.617 6.212l2.33-6.733c6.826 1.74 8.558.567 10.01-4.752L351.67 15.765h9.824ZM17.875 3.642a26.707 26.707 0 0 1 29.698 8.535l-8.9 4.194a17.21 17.21 0 0 0-11.96-4.823 17.295 17.295 0 1 0 11.898 29.829V34.69H19.85v-8.2h27.724v19.026l-.268.33a26.707 26.707 0 1 1-29.43-42.204Zm478.971 11.276c9.273 0 12.55 5.18 13.979 7.86l-6.99 3.292a8.084 8.084 0 0 0-7.237-4.015c-4.233 0-5.35 2.439-5.436 3.433-.117 1.413-.132 3.471 6.593 5.576l.963.32.64.215c6.595 2.238 12.64 4.872 12.64 11.828 0 5.91-4.078 12.123-14.46 12.123-11.688 0-14.53-6.477-15.05-11.735h7.843c.9 4.272 5.576 4.605 7.463 4.605 1.887 0 6.042-.644 6.042-4.154s-7.192-5.196-10.158-6.33c-2.967-1.133-10.67-3.61-10.67-11.773 0-3.984 2.624-11.245 13.838-11.245Zm-424.01 0c12.883 0 16.952 8.201 16.93 15.928v23.81h-8.97v-4.084c-3.837 3.805-7.363 4.978-13.358 4.978-7.89 0-13.846-5.328-13.846-12.193 0-14.522 20.618-12.915 27.08-11.23v-.07c0-4.395-1.368-9.117-7.883-9.117-8.1 0-8.325 4.862-8.325 4.862H55.92c0-5.28 4.03-12.884 16.914-12.884Zm239.85 0c12.883 0 16.945 8.201 16.914 15.928v23.81h-8.962v-4.084c-3.837 3.805-7.362 4.978-13.35 4.978-7.89 0-13.846-5.328-13.846-12.193 0-14.522 20.61-12.915 27.095-11.23v-.07c0-4.395-1.36-9.117-7.875-9.117-8.1 0-8.333 4.862-8.333 4.862h-8.596c0-5.28 4.038-12.884 16.953-12.884Zm143.09.82a20.308 20.308 0 0 1 22.743 8.453l-7.3 4.66a11.649 11.649 0 0 0-9.754-5.281v-.024a11.649 11.649 0 1 0 9.622 18.266l7.3 4.66a20.308 20.308 0 1 1-22.611-30.734Zm-278.163-.765c12.992 0 20.984 11.827 19.135 23.476h-30.062c1.32 5.141 5.708 8.923 10.927 8.923a11.059 11.059 0 0 0 8.845-4.512l7.922 3.883c-.676.9-6.104 8.752-16.767 8.752-11.214 0-19.415-9.07-19.415-20.261 0-11.19 8.224-20.261 19.415-20.261Zm240.3.792-1.296 7.952h-11.113v19.741c0 3.937 2.593 4.465 5.32 4.023a39.452 39.452 0 0 0 1.991-.38l.425-.09c1.127-.241 2.165-.478 2.165-.478L414.14 54.3a22.7 22.7 0 0 1-6.352 1.142c-6.795.109-11.245-4.093-11.245-11.129V15.765h21.372Zm-147.008-.847c11.004-.838 16.44 7.362 16.44 16.44v23.298H278.4V32.99c0-6.532-3.502-9.009-7.114-9.498-3.253-.443-10.965.598-10.965 10.492v20.672h-8.954V15.765h8.954v6.143a12.83 12.83 0 0 1 10.585-6.99Zm-155.613 0a11.198 11.198 0 0 1 10.041 4.163 15.602 15.602 0 0 1 10.616-4.163c8.65.005 15.663 7.014 15.672 15.664v24.074h-8.962V30.582a6.718 6.718 0 1 0-13.428 0v24.074h-8.985V33.021c0-4.637-1.11-7.89-4.543-9.048-2.78-.932-8.884.257-8.884 9.576v21.107h-8.962V15.765h8.993v5.14c1.763-3.214 4.559-5.63 8.442-5.987Zm112.1-11.92 19.61 51.658h-9.661l-4.357-11.47h-21.325l-4.365 11.47h-9.653l19.633-51.658h10.119Zm118.912 0v51.658h-8.954V2.998h8.954Zm87.988 12.767v38.884h-8.954V15.765h8.954ZM80.718 39.342c-7.906-3.564-17.893-1.25-18.08 3.922-.123 3.331 3.17 6.438 9.01 5.32 4.092-.77 8.386-4.722 9.07-8.465Zm239.85 0c-7.914-3.564-17.9-1.25-18.087 3.922-.116 3.355 3.176 6.422 9.009 5.32 4.092-.77 8.395-4.722 9.078-8.465Zm-98.231-24.245-7.657 20.137h15.314l-7.657-20.137Zm-44.708 7.917c-4.737 0-8.95 3.01-10.484 7.49h20.968a11.082 11.082 0 0 0-10.484-7.49Z" fill="#FFF"/></svg>
